X: 29
T: 20,000 Leagues
R: slip jig
M: 9/8
K: Adorian
cdc B2G AGE|cde BAG A2B|
cdc B2G AGE|DEG DEG A2B:|
c2E c2E cde|d2G B2G cBG|
A2E A2E AGE|DEG DEG A2B:|

